X:1
T:Title
%%score ( 1 2 ) { 3 | 4 }
L:1/8
Q:1/4=110
M:4/4
K:Gb
V:1 treble nm="Grand Piano, Soprano"
V:2 treble 
V:3 bass nm="Choir Pad, I’m on My Way"
V:4 bass 
V:1
 [B,D]2 [DG]2 [DG]2 [EG]2 | [FA]2 [GB]2 [GB]2 [GB]2 | [DG]2 [EA]2 [EG]2 [CE]2 | [CG]2 [B,D]6 | %4
w: By~G.~W.~Beck * * *||||
 [DG]2 [GB]2 [Gd]2 [Gd]2 | [Ge]2 [Gd]2 [GB]2 [Gd]2 | [DG]2 [GB]2 [Gd]2 [GB]2 | .F2 z2 z4 | %8
w: ||||
 [DG]2 B2- [GB-]2 [GB]2 | [Ge]2 d2- [Fd-]2 [Gd]2 | [Ge]2 [GB]2 [GB]2 [DA]2 | z2 A6 | z2 B6 | %13
w: |||||
 z2 d6 | [DG]2 [GB]2 [Gd]2 [GB]2 | .F2 G6- | G6 z2 |] %17
w: ||||
V:2
 x8 | x8 | x8 | x8 | x8 | x8 | x8 | A-[DA] [DG]6 | z2 G2 z4 | z2 G2 z4 | x8 | [EG]2 F2 F2 F2 | %12
 [DG]2 G2 G2 G2 | [Ge]2 G2 F2 G2 | x8 | A-[DA] D2 E2 D2- | D6 z2 |] %17
V:3
 B,2 B,2 B,2 B,2 | D2[K:treble] D2 D2 D2 | B,2 C2[K:bass] C2 G,2 | G,2 G,6 | B,2 D2 B,2 B,2 | %5
 C2 B,2 D2 B,2 | B,2 G,2 D2 D2 | C2 B,6 | B,2[K:treble] D2 E2 D2 | C2 B,2[K:bass] A,2 B,2 | %10
 B,2 D2 D2[K:treble] D2 | =C2 D2 D2 D2 | B,2 D2 E2 D2 | C2 B,2 A,2 B,2 | B,2 G,2 D2 D2 | %15
 C2 B,2 C2 B,2- | B,6 z2 |] %17
V:4
 G,2 G,2 G,2 E,2 | D,2 G,2 G,2 G,2 | G,2 C,2 C,2 C,2 | E,2 z2 z4 | G,2 G,2 G,2 G,2 | %5
 G,2 G,2 G,2 G,2 | G,2 E,2 B,,2 D,2 | D,2 G,,6 | G,2 G,2 E,2 G,2 | G,2 G,2 D,2 G,2 | %10
 G,2 G,2 G,2 F,2 | E,2 D,2 D,2 D,2 | G,2 G,2 E,2 G,2 | G,2 G,2 D,2 G,2 | G,2 E,2 B,,2 D,2 | %15
 D,2 G,,6- | G,,6 z2 |] %17

